X:67
T:Brothen i'r Buarth
M:3/4
L:1/4
Q:120
C:Trad.
R:Slow air
N:Play very freely
K:G
G A | B3 | A B G | F D2- | D G A | B3 | A B G |
A G2- | G B c | d3 | d B G | A F D- | D3 | G A B|
A B c | B c d- | d3 | d B G | A G2 | d B G |
| A G2 | G A B | A B c | B c d- | d3 | d B G |
A G2 | d B G | A G2 ||
